X:369
T: IM MAIEN IM MAIEN BLUEHN SUESSE BLUEMELEIN
N: B0440
O: Europa, Mitteleuropa, Deutschland
R: Liebes - Lied, Liebes - Lust, Fruehling
M: 6/8
L: 1/16
K: G
G2 | G6D4B2 | B6G4
Bc | d4e2c4d2 | B8z2
G2 | F4A2G4B2 | A2d2c2B4
A2 | ^G4B2A4c2 | B2e2d2c4
e2 | d6A4B2 | G4z6

